packages/icons/web/thumb_down_small.svg

<svg width="24" height="24" viewBox="0 0 24 24" fill="none" xmlns="http://www.w3.org/2000/svg">
<path d="M9.04837 13.6L11.4871 19C12.4972 19 13.3161 18.1941 13.3161 17.2L13.3161 14.8L16.7668 14.8C17.1246 14.804 17.466 14.6532 17.7008 14.3875C17.9355 14.1218 18.0399 13.7681 17.9862 13.42L17.1448 8.02007C17.0537 7.42843 16.5335 6.99331 15.9255 7.00008L9.04837 7M9.04837 13.6L9.04837 7M9.04837 13.6L7.21935 13.6C6.54592 13.6 6 13.0628 6 12.4L6 8.20007C6 7.53733 6.54592 7.00008 7.21935 7.00008L9.04837 7" stroke="#212933" stroke-width="2" stroke-linecap="round" stroke-linejoin="round"/>
</svg>

<svg width="24" height="24" fill="none" xmlns="http://www.w3.org/2000/svg">
    <path d="M9.048 13.6l2.44 5.4c1.01 0 1.828-.806 1.828-1.8v-2.4h3.45c.359.004.7-.147.935-.413.235-.265.339-.619.285-.967l-.841-5.4A1.214 1.214 0 0015.925 7H9.049m0 6.6V7m0 6.6H7.22A1.21 1.21 0 016 12.4V8.2C6 7.537 6.546 7 7.22 7h1.828" stroke="currentColor" stroke-width="2" stroke-linecap="round" stroke-linejoin="round"/>
</svg>
